X:1
T: Flirtation
P:Kerr's Collection p.30 no.2
R:Jig
Q:180
K:A
M:6/8
L:1/16
e2|e4e2 c2d2e2|f4f2 f4f2|g2f2g2 e2f2g2|a4a2 a4a2|e4e2 c2d2e2|f4g2 a2g2f2|e2f2e2 d2c2B2|A6 A4e2|
e4e2 c2d2e2|f4f2 f4f2|g2f2g2 e2f2g2|a4a2 a4a2|e4e2 c2d2e2|f4g2 a2g2f2|e2f2e2 d2c2B2|A6 A4E2|
A4A2 A2G2A2|B4B2 e4e2|c4c2 A4A2|G2A2B2 E2F2G2|A4A2 A2G2A2|B4B2 e4e2|c2f2e2 d2c2B2|A6 A4e2|
a4a2 a2g2a2|b4b2 e'4e'2|c'4c'2 a4a2|g2a2b2 e2f2g2|a4a2 a2g2a2|b4b2 e'4e'2|c'2f'2e'2 d'2c'2b2|a6 a4||
